X:51
T:Jan, mijne man
S:Blowzabella: Vanilla
C:Trad. Belgium?
M:4/4
L:1/8
K:Am
"Am"c2cB A2Ac|"G"BAGB AGAB|"F"c2cB A2Ac|"G"BAGB A2AB:|
"C"c2cd e3d|cBcd edcB|"F"c2cd e3d|"Em"cBcd edcB|
"Am"c2cB A2Ac|"G"BAGB AGAB|"F"c2cB A2Ac|"G"BAGB A4||